icons/tokens/0xfE18be6b3Bd88A2D2A7f928d00292E7a9963CfC6/logo.svg

<svg width="32" height="32" viewBox="0 0 32 32" fill="none" xmlns="http://www.w3.org/2000/svg">
<circle cx="16" cy="16" r="16" fill="#0E052F"/>
<circle cx="16" cy="16" r="16" fill="url(#paint0_linear)" fill-opacity="0.75"/>
<circle cx="16" cy="16" r="13.8667" fill="white"/>
<circle cx="15.9666" cy="15.9667" r="12.6333" fill="#F7931A"/>
<path fill-rule="evenodd" clip-rule="evenodd" d="M21.5689 14.3112C21.8099 12.7133 20.5824 11.8556 18.9032 11.2809L19.4478 9.11816L18.1177 8.79026L17.5868 10.8964C17.2377 10.8102 16.8786 10.7281 16.5215 10.6482L17.0544 8.52862L15.7263 8.2L15.1798 10.363L14.998 10.3212C14.7719 10.2693 14.5491 10.2181 14.331 10.1655L14.3332 10.1575L12.4979 9.70435L12.1449 11.1112L12.1555 11.1137L12.1555 11.1137C12.2704 11.1399 13.1305 11.3365 13.1096 11.3494C13.648 11.4823 13.7472 11.8362 13.731 12.1151L12.2373 18.043C12.1721 18.205 12.0043 18.4477 11.6275 18.3555C11.6416 18.3749 10.7096 18.1299 10.6607 18.1169L10 19.6234L11.732 20.0516C11.9174 20.0974 12.1007 20.1448 12.282 20.1917L12.2821 20.1917C12.4156 20.2263 12.548 20.2605 12.6792 20.2936L12.1291 22.4818L13.4587 22.81L14.0032 20.6453C14.3664 20.7427 14.7179 20.8327 15.0632 20.9168L14.5206 23.0719L15.8506 23.4L16.4012 21.2158C18.6683 21.6414 20.3754 21.4701 21.0935 19.4378C21.6717 17.8024 21.0637 16.8591 19.8701 16.2434C20.74 16.0463 21.3931 15.4798 21.5689 14.3112ZM18.5299 18.5295C18.1521 20.0302 15.7843 19.4118 14.6978 19.128C14.5991 19.1022 14.5109 19.0792 14.4358 19.0607L15.1658 16.1613C15.2572 16.1839 15.369 16.2087 15.4958 16.2369C16.6195 16.4866 18.9149 16.9965 18.5299 18.5295ZM15.7183 14.8893C16.6222 15.1286 18.5969 15.6513 18.9406 14.2877C19.2917 12.8917 17.3735 12.4709 16.4362 12.2654C16.331 12.2423 16.2381 12.2219 16.1622 12.2032L15.501 14.8329C15.5633 14.8483 15.6364 14.8676 15.7183 14.8893Z" fill="white"/>
<defs>
<linearGradient id="paint0_linear" x1="0" y1="0" x2="32" y2="32" gradientUnits="userSpaceOnUse">
<stop stop-color="#31D8A4"/>
<stop offset="1" stop-color="#31D8A4" stop-opacity="0"/>
</linearGradient>
</defs>
</svg>

<svg fill="none" viewBox="0 0 32 32"><circle cx="16" cy="16" r="16" fill="#0E052F"/><circle cx="16" cy="16" r="16" fill="url(#paint0_linear)" fill-opacity=".75"/><circle cx="16" cy="16" r="13.867" fill="#fff"/><circle cx="15.967" cy="15.967" r="12.633" fill="#F7931A"/><path fill="#fff" fill-rule="evenodd" d="M21.569 14.311c.24-1.598-.987-2.455-2.666-3.03l.545-2.163-1.33-.328-.531 2.106a50.16 50.16 0 00-1.066-.248l.533-2.12-1.328-.328-.546 2.163-.182-.042a62.54 62.54 0 01-.667-.155l.002-.008-1.835-.454-.353 1.407.01.003c.115.026.976.222.955.235.538.133.637.487.621.766l-1.494 5.928c-.065.162-.233.405-.61.313.015.019-.917-.226-.966-.24L10 19.624l1.732.429c.185.045.369.093.55.14l.397.102-.55 2.188 1.33.328.544-2.165c.363.098.715.188 1.06.272l-.542 2.155 1.33.328.55-2.184c2.267.425 3.974.254 4.692-1.778.579-1.636-.03-2.579-1.223-3.195.87-.197 1.523-.763 1.699-1.932zm-3.04 4.218c-.377 1.501-2.745.883-3.831.599a20.249 20.249 0 00-.262-.067l.73-2.9c.091.023.203.048.33.076 1.123.25 3.419.76 3.034 2.293zm-2.81-3.64c.903.24 2.878.762 3.222-.601.35-1.396-1.567-1.817-2.505-2.023a11.912 11.912 0 01-.274-.062l-.661 2.63.217.056z" clip-rule="evenodd"/><defs><linearGradient id="paint0_linear" x1="0" x2="32" y1="0" y2="32" gradientUnits="userSpaceOnUse"><stop stop-color="#31D8A4"/><stop offset="1" stop-color="#31D8A4" stop-opacity="0"/></linearGradient></defs></svg>
